X:1
T:Justification
T:A minor                    Merit Woodruff, 1800
T:Transcribed from Devotional Harmony, 1800.
T:Isaac Watts, 1717 (Psalm 17, Part 1)                  66. 86. (S. M.)       
%%score [ 1 2 3 4 ]
L:1/8
Q:1/4=110
M:4/4
K:C
V:1 treble nm="Tr." snm="Tr."
V:2 treble nm="C." snm="C."
V:3 treble-8 nm="T." snm="T."
V:4 bass nm="B." snm="B."
V:1
"_I   shall  behold    the          face                     Of      my                for     –     gi     –    ving       God;                            And stand complete in righteousness, Washed in my Savior's blood,  Washed  in  my Savior's" A4 c2 d2 | %1
 e4 d4 | (ed c2 B2) B2 | (c2 B2 A2) c2 | (B2 A4) A2 | G4 z4 | z4 c4 | e2 e2 c2 A2 | B2 B2 Bc d2 | %9
 c2 e2 e2 d2 | e6 e2 | e2 c2 BA G2 | %12
"_blood.  There's a new heav'n begun,  When I  a  –  wake   from  death,  Dressed in the  like – ness  of       thy       Son,  Dressed in the  like – ness     of        thy    Son,    And      draw   im –  mor – tal  breath." A6 c2 | %13
 e2 e2 e2 c2 | d2 B2 G2 E2 | G6 c2 | B6 G2 | A2 B2 c3 d | ed c2 B2 B2 | e3 d c2 e2 | d3 c B2 ed | %21
 c3 B A2 G2 | A8 |] %23
V:2
 z8 | %1
"_I     shall  be – hold          the           face                 Of           my          for    –     gi        –        ving  God;                         And    stand   complete    in     right –  eous  –  ness,   Washed  in  my  Savior's" E4 F2 A2 | %2
 G4 G4 | E6 AG | F6 D2 | E6 A2 | G4 z4 | z4 E4 | G2 G2 G2 E2 | A6 A2 | G6 G2 | G2 A2 A2 E2 | %12
"_blood.   There's  a                new    heav'n           be  –  gun,     When   I           a – wake  from death,                                           Dressed in the  like – ness     of        thy    Son,    And      draw   im –  mor – tal  breath." E6 A2 | %13
 G6 G2 | G6 G2 | E6 F2 | E6 E2 | A2 A2 G4- | G6 G2 | E3 E E2 E2 | A3 A A2 EF | G3 F E2 E2 | E8 |] %23
V:3
"_I   shall  behold    the          face                     Of      my                for     –     gi     –    ving       God;                            And stand complete in righteousness, Washed in my Savior's blood,  Washed  in  my Savior's" e4 c2 B2 | %1
 A4 B4 | (cd e4) d2 | (c4 B2) A2 | d6 cA | B4 z4 | z4 e4 | c2 c2 A2 c2 | d2 d2 dc B2 | %9
 c2 B2 c2 A2 | B6 G2 | c2 A2 dc A2 | %12
"_blood.  There's a new heav'n begun,  When I  a  –  wake   from  death,  Dressed in the  like – ness  of       thy       Son,  Dressed in the  like – ness     of        thy    Son,    And      draw   im –  mor – tal  breath." A6 c2 | %13
 B2 B2 B2 e2 | d2 d2 d2 B2 | c6 A2 | B6 B2 | c2 d2 e3 d | ef gf e2 e2 | c3 B A2 e2 | f3 e d2 gf | %21
 e3 d c2 B2 | A8 |] %23
V:4
 z8 | %1
"_I     shall  be – hold          the           face                 Of           my          for    –     gi        –        ving  God;                         And    stand   complete    in     right –  eous  –  ness,   Washed  in  my  Savior's" A,4 G,2 F,2 | %2
 E,4 G,4 | (C,2 D,2 E,2) F,2 | D,6 F,2 | (E,3 F, G,2) A,2 | E,4 z4 | z4 A,4 | G,2 G,2 G,A, B,2 | %9
 A,6 A,2 | E,6 E,2 | C,2 C,2 D,2 E,2 | %12
"_blood.   There's  a                new    heav'n           be  –  gun,     When   I           a – wake  from death,                                           Dressed in the  like – ness     of        thy    Son,    And      draw   im –  mor – tal  breath." A,,6 A,2 | %13
 E,6 E,2 | G,6 G,2 | C,6 C,2 | E,6 G,2 | F,2 D,2 E,4- | E,6 G,2 | A,3 A, A,2 A,2 | D,3 D, D,2 E,2 | %21
 C,3 D, E,2 E,2 | A,,8 |] %23

